src/img/astronaut.svg

<svg width="33" height="33" viewBox="0 0 33 33" fill="none" xmlns="http://www.w3.org/2000/svg">
<g opacity="0.75" clip-path="url(#clip0)">
<path d="M30.8003 24.9479V16.7274C31.6102 16.3893 32.181 15.5893 32.181 14.6583V10.8518C32.181 9.92075 31.6102 9.12076 30.8003 8.78271V8.74835C30.8003 6.77718 29.1966 5.17352 27.2255 5.17352L26.8257 5.18177C24.4726 2.03814 20.7198 0 16.4999 0C14.0557 0 11.6767 0.687199 9.62034 1.98735C9.39469 2.13005 9.3274 2.42859 9.4701 2.65424C9.61273 2.87996 9.91147 2.94712 10.137 2.80455C12.0386 1.60224 14.2389 0.966797 16.4999 0.966797C23.075 0.966797 28.4242 6.31602 28.4242 12.8911C28.4242 19.4661 23.075 24.8154 16.4999 24.8154C9.92488 24.8154 4.57572 19.4661 4.57572 12.8911C4.57572 9.43426 6.07419 6.15089 8.68699 3.88272C8.8886 3.70773 8.91013 3.40242 8.73514 3.20081C8.56002 2.9992 8.25477 2.97761 8.05316 3.15266C7.35024 3.7629 6.72201 4.44121 6.17468 5.17339H5.77455C3.80338 5.17339 2.19966 6.77705 2.19966 8.74822V8.78258C1.3898 9.12063 0.819007 9.92069 0.819007 10.8517V14.6581C0.819007 15.5891 1.3898 16.3891 2.19966 16.7273V24.9572C2.09376 25.103 1.99212 25.2522 1.89557 25.4052C1.06548 26.7205 0.626678 28.2416 0.626678 29.804V32.5166C0.626678 32.7836 0.843048 33 1.11008 33H31.8898C32.1568 33 32.3732 32.7836 32.3732 32.5166V29.8041C32.3733 28.0167 31.8063 26.33 30.8003 24.9479ZM27.8685 20.513C27.6731 20.3176 27.4376 20.1776 27.1833 20.0982C27.8459 19.1191 28.3768 18.0442 28.7522 16.8994H29.8334V23.8437C29.3308 23.3636 28.763 22.9423 28.1373 22.594C28.2805 22.3369 28.3591 22.039 28.3591 21.7326C28.3591 21.2693 28.1803 20.8247 27.8685 20.513ZM31.2141 10.8518V14.6583C31.2141 15.3609 30.6425 15.9326 29.9398 15.9326H29.0276C29.2646 14.9569 29.391 13.9386 29.391 12.8911C29.391 11.7459 29.2401 10.6353 28.9585 9.57748H29.9398C30.6425 9.57741 31.2141 10.1491 31.2141 10.8518ZM29.8297 8.61062H28.6595C28.3542 7.74572 27.9594 6.92278 27.4856 6.15328C28.7569 6.27973 29.7625 7.32297 29.8297 8.61062ZM16.4999 25.7822C20.5336 25.7822 24.14 23.9194 26.5055 21.0095C26.5151 21.008 26.5246 21.0069 26.5342 21.0048C26.7709 20.9539 27.014 21.0257 27.1849 21.1966C27.3167 21.3284 27.3924 21.5238 27.3924 21.7326C27.3924 21.9413 27.3167 22.1367 27.1848 22.2686C25.7167 23.7367 24.06 24.8932 22.2604 25.7059C20.3811 26.5548 18.4347 26.9852 16.4752 26.9852C12.6397 26.9852 8.85483 25.3285 5.81761 22.3204C5.54078 22.0463 5.53846 21.5253 5.81271 21.2483C6.00097 21.0583 6.27658 20.9908 6.53149 21.0716C6.53697 21.0733 6.54257 21.0744 6.54805 21.076C8.91432 23.948 12.4969 25.7822 16.4999 25.7822ZM4.24772 16.8994C4.62844 18.0602 5.16933 19.1489 5.845 20.139C5.57829 20.2172 5.33015 20.3617 5.12576 20.568C4.59828 21.1007 4.50482 21.9573 4.84262 22.6059C4.23206 22.9489 3.66906 23.3665 3.16652 23.8488V16.8994H4.24772ZM5.51107 6.15353C5.03527 6.92942 4.6432 7.75307 4.34124 8.61062H3.17013C3.23735 7.32413 4.24121 6.28147 5.51107 6.15353ZM1.7858 14.6583V10.8518C1.7858 10.1491 2.35744 9.57748 3.06017 9.57748H4.04289C3.75807 10.6482 3.60892 11.761 3.60892 12.8911C3.60892 13.9386 3.73545 14.957 3.97231 15.9326H3.06017C2.3575 15.9326 1.7858 15.3609 1.7858 14.6583ZM31.4065 32.0332H26.6112V31.3737C26.6112 30.2227 25.6748 29.2863 24.5237 29.2863H12.4437C12.1767 29.2863 11.9603 29.5027 11.9603 29.7697C11.9603 30.0366 12.1767 30.2531 12.4437 30.2531H24.5237C25.1417 30.2531 25.6444 30.7558 25.6444 31.3737V32.0332H7.35559V31.3737C7.35559 30.7558 7.85832 30.2531 8.47623 30.2531H10.5101C10.7771 30.2531 10.9935 30.0366 10.9935 29.7697C10.9935 29.5027 10.7771 29.2863 10.5101 29.2863H8.47623C7.32523 29.2863 6.38879 30.2227 6.38879 31.3737V32.0332H1.59354V29.8041C1.59354 27.0746 3.08486 24.6165 5.49489 23.3516C6.95275 24.7223 8.57633 25.8148 10.328 26.6014C12.3241 27.4976 14.3923 27.952 16.4751 27.952C18.5728 27.952 20.653 27.4928 22.6584 26.5871C24.4047 25.7984 26.0218 24.705 27.4733 23.3349C29.901 24.5948 31.4065 27.0662 31.4065 29.8041V32.0332Z" fill="white"/>
<path d="M6.65241 9.11838C6.51177 9.32476 6.43745 9.5642 6.43745 9.81073V16.6556C6.43745 16.9021 6.51177 17.1416 6.65241 17.3479C8.59393 20.1974 12.3669 21.9721 16.5008 21.9794C20.6329 21.9721 24.406 20.1974 26.3475 17.3479C26.4882 17.1415 26.5625 16.9021 26.5625 16.6556V9.81067C26.5625 9.5642 26.4882 9.32476 26.3475 9.11831C24.406 6.26884 20.6329 4.49419 16.5008 4.4869C16.5003 4.4869 16.4996 4.4869 16.4991 4.4869C12.3669 4.49419 8.59393 6.26884 6.65241 9.11838ZM16.4999 5.4537C20.3172 5.4606 23.7843 7.07341 25.5485 9.66268C25.5794 9.70799 25.5957 9.75917 25.5957 9.81067V16.6555C25.5957 16.707 25.5794 16.7581 25.5485 16.8034C23.7842 19.3929 20.3167 21.0057 16.5008 21.0125C12.6833 21.0057 9.21577 19.393 7.45143 16.8034C7.42056 16.7582 7.40432 16.707 7.40432 16.6555V9.81067C7.40432 9.75911 7.42062 9.70799 7.45143 9.66268C9.21564 7.07341 12.6828 5.46066 16.4999 5.4537Z" fill="white"/>
<path d="M9.63123 10.4636C9.74989 10.4636 9.86868 10.4202 9.96201 10.3326C11.3923 8.98998 13.8366 8.18619 16.4993 8.18252C19.1633 8.18619 21.6077 8.98999 23.0379 10.3325C23.2326 10.5153 23.5385 10.5056 23.7212 10.311C23.9039 10.1163 23.8943 9.81041 23.6996 9.62768C22.095 8.12141 19.4038 7.21978 16.4993 7.21572C13.5962 7.21971 10.905 8.12141 9.3004 9.62768C9.10575 9.81041 9.09608 10.1163 9.2788 10.311C9.37387 10.4124 9.50239 10.4636 9.63123 10.4636Z" fill="white"/>
</g>
<defs>
<clipPath id="clip0">
<rect width="33" height="33" fill="white"/>
</clipPath>
</defs>
</svg>

<svg width="33" height="33" fill="none" xmlns="http://www.w3.org/2000/svg"><g opacity=".75" clip-path="url(#a)" fill="#fff"><path d="M30.8 24.948v-8.22a2.245 2.245 0 0 0 1.381-2.07v-3.806c0-.931-.57-1.731-1.38-2.07v-.034a3.579 3.579 0 0 0-3.575-3.574l-.4.008C24.473 2.038 20.72 0 16.5 0c-2.444 0-4.823.687-6.88 1.987a.483.483 0 1 0 .517.818A11.887 11.887 0 0 1 16.5.967c6.575 0 11.924 5.349 11.924 11.924 0 6.575-5.349 11.924-11.924 11.924-6.575 0-11.924-5.349-11.924-11.924 0-3.457 1.498-6.74 4.111-9.008a.483.483 0 1 0-.634-.73 12.918 12.918 0 0 0-1.878 2.02h-.4A3.579 3.579 0 0 0 2.2 8.748v.035a2.244 2.244 0 0 0-1.381 2.069v3.806c0 .931.57 1.731 1.38 2.07v8.23a8.23 8.23 0 0 0-1.573 4.847v2.712c0 .267.217.483.484.483h30.78a.483.483 0 0 0 .483-.483v-2.713a8.229 8.229 0 0 0-1.573-4.856Zm-2.931-4.435a1.673 1.673 0 0 0-.686-.415 12.852 12.852 0 0 0 1.57-3.199h1.08v6.945a8.293 8.293 0 0 0-1.696-1.25 1.775 1.775 0 0 0-.268-2.081Zm3.345-9.661v3.806c0 .703-.572 1.275-1.274 1.275h-.912a12.87 12.87 0 0 0 .363-3.042c0-1.145-.15-2.256-.432-3.314h.98c.703 0 1.275.572 1.275 1.275ZM29.83 8.61h-1.17c-.306-.865-.7-1.688-1.174-2.458A2.612 2.612 0 0 1 29.83 8.61ZM16.5 25.782c4.034 0 7.64-1.863 10.006-4.773l.028-.004c.237-.051.48.02.65.192a.758.758 0 0 1 .208.536.758.758 0 0 1-.207.536c-1.468 1.468-3.125 2.624-4.925 3.437-1.879.849-3.825 1.28-5.785 1.28-3.835 0-7.62-1.658-10.657-4.666-.277-.274-.28-.795-.005-1.072a.707.707 0 0 1 .718-.176l.017.004a12.87 12.87 0 0 0 9.952 4.706ZM4.248 16.9c.38 1.161.921 2.25 1.597 3.24a1.673 1.673 0 0 0-.72.429c-.527.533-.62 1.39-.282 2.038-.61.343-1.174.76-1.676 1.243V16.9h1.08ZM5.51 6.154a12.89 12.89 0 0 0-1.17 2.457H3.17a2.612 2.612 0 0 1 2.34-2.457Zm-3.725 8.504v-3.806c0-.703.571-1.275 1.274-1.275h.983a12.886 12.886 0 0 0-.07 6.356H3.06a1.276 1.276 0 0 1-1.274-1.275Zm29.62 17.375H26.61v-.66a2.09 2.09 0 0 0-2.087-2.087h-12.08a.483.483 0 1 0 0 .967h12.08c.618 0 1.12.503 1.12 1.12v.66H7.356v-.66c0-.617.502-1.12 1.12-1.12h2.034a.483.483 0 0 0 0-.967H8.476a2.09 2.09 0 0 0-2.087 2.088v.66H1.594v-2.23a7.249 7.249 0 0 1 3.9-6.452 17.55 17.55 0 0 0 4.834 3.25c1.996.896 4.064 1.35 6.147 1.35 2.098 0 4.178-.46 6.183-1.365a17.518 17.518 0 0 0 4.815-3.252 7.255 7.255 0 0 1 3.934 6.47v2.228Z"/><path d="M6.652 9.118c-.14.207-.215.446-.215.693v6.845c0 .246.075.486.215.692 1.942 2.85 5.715 4.624 9.849 4.631 4.132-.007 7.905-1.782 9.846-4.631.141-.206.215-.446.215-.692V9.81c0-.247-.074-.486-.215-.693-1.941-2.85-5.714-4.624-9.846-4.631h-.002c-4.132.007-7.905 1.782-9.847 4.631ZM16.5 5.454c3.817.007 7.284 1.62 9.049 4.209.03.045.047.096.047.148v6.845a.262.262 0 0 1-.047.147c-1.765 2.59-5.232 4.203-9.048 4.21-3.818-.007-7.285-1.62-9.05-4.21a.262.262 0 0 1-.047-.148V9.811c0-.052.017-.103.047-.148 1.765-2.59 5.232-4.202 9.049-4.21Z"/><path d="M9.631 10.464a.482.482 0 0 0 .331-.131c1.43-1.343 3.875-2.147 6.537-2.15 2.664.003 5.109.807 6.539 2.15a.483.483 0 1 0 .662-.705c-1.605-1.507-4.296-2.408-7.2-2.412-2.904.004-5.595.905-7.2 2.412a.483.483 0 0 0 .331.836Z"/></g><defs><clipPath id="a"><path fill="#fff" d="M0 0h33v33H0z"/></clipPath></defs></svg>
